symbols/web/nest_cam_indoor/materialsymbolsoutlined/nest_cam_indoor_wght200gradN25_24px.svg

<svg xmlns="http://www.w3.org/2000/svg" height="24" width="24"><path d="M12 10.875q-.575 0-.975-.4t-.4-.975q0-.575.4-.988.4-.412.975-.412t.975.412q.4.413.4.963 0 .575-.4.987-.4.413-.975.413Zm-4.15 9.5q0-.4.263-.663.262-.262.662-.262h2.775q0-2.075-.55-3.025-.55-.95-2.2-2.025-1.25-.825-1.962-2.1-.713-1.275-.713-2.8 0-2.475 1.7-4.188Q9.525 3.6 12 3.6q2.45 0 4.163 1.712 1.712 1.713 1.712 4.163 0 1.55-.737 2.862-.738 1.313-1.963 2.088-1.675 1.05-2.187 2-.513.95-.513 3.025h2.75q.4 0 .65.262.25.263.25.663ZM12 14.45q2.05 0 3.5-1.45 1.45-1.45 1.45-3.5T15.5 5.987Q14.05 4.525 12 4.525T8.5 5.987Q7.05 7.45 7.05 9.475q0 2.05 1.45 3.512Q9.95 14.45 12 14.45Z"/></svg>

<svg xmlns="http://www.w3.org/2000/svg" height="24" width="24"><path d="M12 10.875Q11.425 10.875 11.025 10.475Q10.625 10.075 10.625 9.5Q10.625 8.925 11.025 8.512Q11.425 8.1 12 8.1Q12.575 8.1 12.975 8.512Q13.375 8.925 13.375 9.475Q13.375 10.05 12.975 10.462Q12.575 10.875 12 10.875ZM7.85 20.375Q7.85 19.975 8.113 19.712Q8.375 19.45 8.775 19.45H11.55Q11.55 17.375 11 16.425Q10.45 15.475 8.8 14.4Q7.55 13.575 6.838 12.3Q6.125 11.025 6.125 9.5Q6.125 7.025 7.825 5.312Q9.525 3.6 12 3.6Q14.45 3.6 16.163 5.312Q17.875 7.025 17.875 9.475Q17.875 11.025 17.138 12.337Q16.4 13.65 15.175 14.425Q13.5 15.475 12.988 16.425Q12.475 17.375 12.475 19.45H15.225Q15.625 19.45 15.875 19.712Q16.125 19.975 16.125 20.375ZM12 14.45Q14.05 14.45 15.5 13Q16.95 11.55 16.95 9.5Q16.95 7.45 15.5 5.987Q14.05 4.525 12 4.525Q9.95 4.525 8.5 5.987Q7.05 7.45 7.05 9.475Q7.05 11.525 8.5 12.987Q9.95 14.45 12 14.45Z"/></svg>
